X: 40701
T: Torth O Fara
R: jig
M: 6/8
K: Gmajor
|:D|G2 G G2 A|GFE D2 D|G2 G B2 B|DEF G2:|
A|B2 B G2 B|dcA A2 A|B2 B B2 d|dBG A2 D|
G2 G G2 A|GFE D3|G2 G B2 B|DEF G2||

